X: 30793
T: Oswestry Wake
R: jig
M: 6/8
K: Gmajor
d|efg f2e|dcB A2G|gfe f2g|a3a2d|
efg f2e|dcB ABc|BGB ADA|G3 G2A:|
|:Bcd ded|dBG dBG|A2B c2d|e3edc|
def gfe|def g2c|B3 AGF|G3 def:|
|:gdB gdB|gdB A2G|gfe f2g|a3a2f|
gba gfe|fag fed|ced cBA|G3 def:|

